X:376
T:
R:polska
S:Efter »Florsen» i Burs.
O:Gotland, Burs
M:3/4
L:1/16
K:D
DFAF DFAD A,2A,2|DFAF DFAF A,4|DEFG ABcd e3f|g2fg agfg e4|
DFAF DFAD A,2A,2|DFAF DFAF A,4|DEFG ABcd e3g|fedc c4 d4::
A2A2 Acec Acec|Adfd dcec cBdB|A2A2 Acec Acec|Adfd dcec cBdB|
B2cB A2A2 G2G2|F4 EDEF G2F2|DEFG ABcd e3g|fedc c4 d4:|

